material/.icons/material/bed-queen-outline.svg

<svg xmlns="http://www.w3.org/2000/svg" viewBox="0 0 24 24"><path d="M19 10V7a2 2 0 00-2-2H7a2 2 0 00-2 2v3a2 2 0 00-2 2v5h1.33L5 19h1l.67-2h10.66l.67 2h1l.67-2H21v-5a2 2 0 00-2-2M7 7h10v3H7m12 5H5v-3h14z"/></svg>

<?xml version="1.0" encoding="UTF-8"?><!DOCTYPE svg PUBLIC "-//W3C//DTD SVG 1.1//EN" "http://www.w3.org/Graphics/SVG/1.1/DTD/svg11.dtd"><svg xmlns="http://www.w3.org/2000/svg" xmlns:xlink="http://www.w3.org/1999/xlink" version="1.1" id="mdi-bed-queen-outline" width="24" height="24" viewBox="0 0 24 24"><path d="M19 10V7A2 2 0 0 0 17 5H7A2 2 0 0 0 5 7V10A2 2 0 0 0 3 12V17H4.33L5 19H6L6.67 17H17.33L18 19H19L19.67 17H21V12A2 2 0 0 0 19 10M7 7H17V10H7M19 15H5V12H19Z" /></svg>
